X:1
T:A Soldier From Missouri
M:2/4
L:1/8
K:F
 F| A3/2 ^G/2 A3/2 G/2| A c2 A| GF DC| D3| c| dd fc| d d2 A| cd AG|\
 A3| c| dd fc| d d2 A| cd AG| A3| G| F/2F/2 DD C| D D2 A,| CD A, G,|\
 A,3||

